!! 00000] TT[WS
!!!OTL: Nao wugeng
!!!ARE: Asia, China, Shanxi Linxian
!! Ethnic Group: Han
!! WII, 121 (2)
!!!SCT: J0586
!!!YEM: Copyright 1995, estate of Helmut Schaffrath.
**kern
*ICvox
*Ivox
*M2/4
*k[f#]
*G:
{8a
4a
8b
=1
4dd
8ee
8dd
=2
8b
8dd
4a
=3
8dd
4g
8b
=4
2a}
=5
{8a
4a
8b
=6
4dd
8ee
8dd
=7
8b
8dd
4a
=8
8dd
4g
8b
=9
2a}
=10
{4g
4a
=11
8a
4dd
8b
=12
4.a
8g
=13
4dd
8b
8b
=14
4.g
8e
=15
2d}
=16
{4e
8e
8g
=17
4a
4r
=18
8dd
8cc
8a
8g
=19
4e
8b
8a
=20
4.g
8a
=21
8e
8d
8B
8A
=22
4.d
8e
=23
2d}
==
!!!AGN: Xiaodiao. Qingge, Aisu
!!!ONB: ESAC (Essen Associative Code) Database: CHINA
!!!AMT: simple duple
!!!AIN: vox
!!!EED: Helmut Schaffrath
!!!EEV: 1.0
*-
